build/svg/cmd/32/customshowdialog.svg

<?xml version="1.0" encoding="UTF-8" standalone="no"?>
<svg
   xmlns:dc="http://purl.org/dc/elements/1.1/"
   xmlns:cc="http://creativecommons.org/ns#"
   xmlns:rdf="http://www.w3.org/1999/02/22-rdf-syntax-ns#"
   xmlns:svg="http://www.w3.org/2000/svg"
   xmlns="http://www.w3.org/2000/svg"
   xmlns:sodipodi="http://sodipodi.sourceforge.net/DTD/sodipodi-0.dtd"
   xmlns:inkscape="http://www.inkscape.org/namespaces/inkscape"
   viewBox="0 0 32 32"
   version="1.1"
   id="svg4"
   sodipodi:docname="customshowdialog.svg"
   inkscape:export-filename="/home/jupiter007/Libreoffice yaru theme fullcolor/build/cmd/32/customshowdialog.png"
   inkscape:export-xdpi="96"
   inkscape:export-ydpi="96"
   inkscape:version="0.92.5 (2060ec1f9f, 2020-04-08)">
  <metadata
     id="metadata10">
    <rdf:RDF>
      <cc:Work
         rdf:about="">
        <dc:format>image/svg+xml</dc:format>
        <dc:type
           rdf:resource="http://purl.org/dc/dcmitype/StillImage" />
      </cc:Work>
    </rdf:RDF>
  </metadata>
  <defs
     id="defs8" />
  <sodipodi:namedview
     pagecolor="#ffffff"
     bordercolor="#666666"
     borderopacity="1"
     objecttolerance="10"
     gridtolerance="10"
     guidetolerance="10"
     inkscape:pageopacity="0"
     inkscape:pageshadow="2"
     inkscape:window-width="1920"
     inkscape:window-height="1011"
     id="namedview6"
     showgrid="true"
     inkscape:zoom="29.5"
     inkscape:cx="24.104314"
     inkscape:cy="6.5516374"
     inkscape:window-x="0"
     inkscape:window-y="32"
     inkscape:window-maximized="1"
     inkscape:current-layer="svg4">
    <inkscape:grid
       type="xygrid"
       id="grid841" />
  </sodipodi:namedview>
  <path
     inkscape:connector-curvature="0"
     id="path826"
     d="M 2.9999998,8.0000618 V 24.000062 c 0,2.216 1.784,4 4,4 H 25 c 2.216,0 4,-1.784 4,-4 V 8.0000618 Z"
     style="opacity:0.6;fill:#000000;fill-opacity:1;fill-rule:evenodd;stroke:#000000;stroke-width:2;stroke-linecap:butt;stroke-linejoin:round;stroke-miterlimit:4;stroke-dasharray:none;stroke-opacity:1" />
  <rect
     style="opacity:1;fill:#6d6d6d;fill-opacity:1;fill-rule:evenodd;stroke:none;stroke-width:2;stroke-linecap:butt;stroke-linejoin:round;stroke-miterlimit:4;stroke-dasharray:none;stroke-opacity:1"
     id="rect819"
     width="32"
     height="4"
     x="0"
     y="4.000062" />
  <path
     inkscape:connector-curvature="0"
     style="opacity:1;fill:#ffffff;fill-opacity:1;fill-rule:evenodd;stroke:none;stroke-width:2;stroke-linecap:butt;stroke-linejoin:round;stroke-miterlimit:4;stroke-dasharray:none;stroke-opacity:1"
     d="M 2.9999998,8.0000618 V 24.000062 c 0,2.216 1.784,4 4,4 H 25 c 2.216,0 4,-1.784 4,-4 V 8.0000618 Z"
     id="rect821" />
  <path
     style="opacity:1;fill:#46a926;fill-opacity:1;fill-rule:evenodd;stroke:none;stroke-width:2;stroke-linecap:butt;stroke-linejoin:round;stroke-miterlimit:4;stroke-dasharray:none;stroke-opacity:1"
     id="path830"
     sodipodi:type="arc"
     sodipodi:cx="21"
     sodipodi:cy="18.000063"
     sodipodi:rx="6"
     sodipodi:ry="6"
     sodipodi:start="0"
     sodipodi:end="4.712389"
     d="M 27,18.000063 A 6,6 0 0 1 23.296101,23.54334 6,6 0 0 1 16.757359,22.242704 6,6 0 0 1 15.456723,15.703962 6,6 0 0 1 21,12.000063 l 0,6 z" />
  <path
     d="m 12.000063,-21 a 6,6 0 0 1 6,-6 l 0,6 z"
     sodipodi:end="4.712389"
     sodipodi:start="3.1415927"
     sodipodi:ry="6"
     sodipodi:rx="6"
     sodipodi:cy="-21"
     sodipodi:cx="18.000063"
     sodipodi:type="arc"
     id="path832"
     style="opacity:1;fill:#c7162b;fill-opacity:1;fill-rule:evenodd;stroke:none;stroke-width:2;stroke-linecap:butt;stroke-linejoin:round;stroke-miterlimit:4;stroke-dasharray:none;stroke-opacity:1"
     transform="rotate(90)" />
  <rect
     style="opacity:1;fill:#1a7fd4;fill-opacity:1;fill-rule:evenodd;stroke:none;stroke-width:4;stroke-linecap:butt;stroke-linejoin:round;stroke-miterlimit:4;stroke-dasharray:none;stroke-opacity:1"
     id="rect830"
     width="6"
     height="2"
     x="6.000001"
     y="13.000062" />
  <rect
     style="opacity:1;fill:#c7162b;fill-opacity:1;fill-rule:evenodd;stroke:none;stroke-width:3.99999976;stroke-linecap:butt;stroke-linejoin:round;stroke-miterlimit:4;stroke-dasharray:none;stroke-opacity:1"
     id="rect832"
     width="6"
     height="2"
     x="6.000001"
     y="17.000061" />
  <rect
     style="opacity:1;fill:#46a926;fill-opacity:1;fill-rule:evenodd;stroke:none;stroke-width:3.99999976;stroke-linecap:butt;stroke-linejoin:round;stroke-miterlimit:4;stroke-dasharray:none;stroke-opacity:1"
     id="rect834"
     width="6"
     height="2"
     x="6.000001"
     y="21.000063" />
  <path
     style="opacity:0.6;fill:#000000;fill-opacity:1;fill-rule:evenodd;stroke:#000000;stroke-width:2;stroke-linecap:butt;stroke-linejoin:round;stroke-miterlimit:4;stroke-dasharray:none;stroke-opacity:1"
     d="M 26 19 A 3 3 0 0 0 23 22 A 3 3 0 0 0 26 25 A 3 3 0 0 0 29 22 A 3 3 0 0 0 26 19 z M 26 25 A 5 6 0 0 0 21 31 L 31 31 A 5 6 0 0 0 26 25 z "
     id="path854" />
  <path
     style="opacity:1;fill:#aee3f8;fill-opacity:1;fill-rule:evenodd;stroke:none;stroke-width:2;stroke-linecap:butt;stroke-linejoin:round;stroke-miterlimit:4;stroke-dasharray:none;stroke-opacity:1"
     d="M 26 19 A 3 3 0 0 0 23 22 A 3 3 0 0 0 26 25 A 3 3 0 0 0 29 22 A 3 3 0 0 0 26 19 z M 26 25 A 5 6 0 0 0 21 31 L 31 31 A 5 6 0 0 0 26 25 z "
     id="path847" />
</svg>

<svg xmlns="http://www.w3.org/2000/svg" viewBox="0 0 32 32"><path d="M3 8v16c0 2.216 1.784 4 4 4h18c2.216 0 4-1.784 4-4V8z" opacity=".6" fill-rule="evenodd" stroke="#000" stroke-width="2" stroke-linejoin="round"/><path fill="#6d6d6d" fill-rule="evenodd" d="M0 4h32v4H0z"/><path d="M3 8v16c0 2.216 1.784 4 4 4h18c2.216 0 4-1.784 4-4V8z" fill="#fff" fill-rule="evenodd"/><path d="M27 18a6 6 0 01-3.704 5.543 6 6 0 01-6.539-1.3 6 6 0 01-1.3-6.539A6 6 0 0121 12v6z" fill="#46a926" fill-rule="evenodd"/><path d="M21 12a6 6 0 016 6h-6z" fill="#c7162b" fill-rule="evenodd"/><path fill="#1a7fd4" fill-rule="evenodd" d="M6 13h6v2H6z"/><path fill="#c7162b" fill-rule="evenodd" d="M6 17h6v2H6z"/><path fill="#46a926" fill-rule="evenodd" d="M6 21h6v2H6z"/><path d="M26 19a3 3 0 00-3 3 3 3 0 003 3 3 3 0 003-3 3 3 0 00-3-3zm0 6a5 6 0 00-5 6h10a5 6 0 00-5-6z" opacity=".6" fill-rule="evenodd" stroke="#000" stroke-width="2" stroke-linejoin="round"/><path d="M26 19a3 3 0 00-3 3 3 3 0 003 3 3 3 0 003-3 3 3 0 00-3-3zm0 6a5 6 0 00-5 6h10a5 6 0 00-5-6z" fill="#aee3f8" fill-rule="evenodd"/></svg>
